src/pos-icons/progress-check.svg

<svg height="24" viewBox="0 0 24 24" width="24" xmlns="http://www.w3.org/2000/svg"><path d="m13 2.03v.02 2c4.39.54 7.5 4.53 6.96 8.92-.46 3.64-3.32 6.53-6.96 6.96v2c5.5-.55 9.5-5.43 8.95-10.93-.45-4.75-4.22-8.5-8.95-8.97m-2 .03c-1.95.19-3.81.94-5.33 2.2l1.43 1.48c1.12-.9 2.47-1.48 3.9-1.68zm-6.74 3.61c-1.26 1.52-2.01 3.37-2.21 5.33h2c.19-1.42.75-2.77 1.64-3.9zm11.24 2.83-4.88 4.88-2.12-2.12-1.06 1.06 3.18 3.18 5.94-5.94zm-13.44 4.5c.2 1.96.97 3.81 2.21 5.33l1.42-1.43c-.88-1.13-1.45-2.48-1.63-3.9zm5.04 5.37-1.43 1.37c1.51 1.26 3.37 2.05 5.33 2.26v-2c-1.42-.18-2.77-.75-3.9-1.63z"/></svg>

<?xml version="1.0" encoding="UTF-8"?><!DOCTYPE svg PUBLIC "-//W3C//DTD SVG 1.1//EN" "http://www.w3.org/Graphics/SVG/1.1/DTD/svg11.dtd"><svg xmlns="http://www.w3.org/2000/svg" xmlns:xlink="http://www.w3.org/1999/xlink" version="1.1" id="mdi-progress-check" width="24" height="24" viewBox="0 0 24 24"><path d="M13,2.03V2.05L13,4.05C17.39,4.59 20.5,8.58 19.96,12.97C19.5,16.61 16.64,19.5 13,19.93V21.93C18.5,21.38 22.5,16.5 21.95,11C21.5,6.25 17.73,2.5 13,2.03M11,2.06C9.05,2.25 7.19,3 5.67,4.26L7.1,5.74C8.22,4.84 9.57,4.26 11,4.06V2.06M4.26,5.67C3,7.19 2.25,9.04 2.05,11H4.05C4.24,9.58 4.8,8.23 5.69,7.1L4.26,5.67M15.5,8.5L10.62,13.38L8.5,11.26L7.44,12.32L10.62,15.5L16.56,9.56L15.5,8.5M2.06,13C2.26,14.96 3.03,16.81 4.27,18.33L5.69,16.9C4.81,15.77 4.24,14.42 4.06,13H2.06M7.1,18.37L5.67,19.74C7.18,21 9.04,21.79 11,22V20C9.58,19.82 8.23,19.25 7.1,18.37Z" /></svg>
